X: 10048
T: Dick Sands'
R: hornpipe
M: 4/4
K: Amajor
|:(3efg|a>ae>c A>cf>e|d>cB>A G>BE>G|A>Bc>d e>cA>c|B>e^d>f e>ef>g|
a>ae>c A>cf>e|d>cB>A G>BE>G|A>ae>c f>dB>G|A2 c2 A2:|
|:d>c|B>cB>A G>EF>G|A>Bc>d e>cA>c|d>cd>e f>ed>c|B>e^d>f e>ef>g|
(3aba e>c (3fgf d>B|(3efd c>A (3ded B>G|A>ae>c f>dB>G|A2 c2 A2:|

